X:1
T:Rumores de la Caleta
T:Rumores de la Caleta
T:Malagueña, Op. 71, No. 6 
T:Isaac Albéniz (1860 - 1909)
C:Isaac Albéniz
%%score ( 1 2 3 )
L:1/8
Q:1/4=40
M:3/4
K:C
V:1 treble-8 nm="Classical Guitar" snm="Guit."
V:2 treble-8 
V:3 treble-8 
V:1
"^Lento"!f! (7:4:7E,/B,/E/^G/B/e/^g/"_XII" !fermata!e'4 || %1
[M:3/8]S[Q:1/4=85]"^Allegro"!p! z"_melancólico" (3^G/B/e/E | z/ [FA]/ z/ [FAB]/ z/ [FA]/ | %3
 z (3^G/B/e/E | z/ [FA]/ z/ [FAB]/ z/ [FA]/ | z (3^G/B/e/E | z [AB] z | z (3^G/B/e/E | %8
 z/ [FA]/ z/ [FAB]/ z/ [FA]/ | z (3^G/B/e/E | z [AB] z | z [AB] z | z [AB] z | z (3^G/B/e/E | %14
 z [FA][AB] | z (3^G/B/e/E | z [FA][AB] | z (3^G/B/e/E |!<(! z [FAB][AB] | z [AB][AB]!<)! | %20
!>(! z [AB][AB]!>)! |!mf! z (3^G/B/e/E | z [FAB] z | z (3^G/B/e/E | z [FAB] z | z"_cantando" bd'- | %26
 d'c'-c'/(d'/4c'/4) | b2 a/b/ | c'2 d' | (3(c'/d'/c'/) b2 | (3(a/b/a/)"^III"[Fcg][Bf] | %31
 z (3^G/B/e/E | z [FA][AB] | z (3^G/B/e/E | z [AB] z | z (3^G/B/e/E |!<(! z [FAB][AB] | %37
 z [AB][AB]!<)! |!>(! z [AB][AB]!>)! |!mf! z (3^G/B/e/E | z [AB] z | z [AB] z | z [AB] z | z bd'- | %44
 d'c'-c'/(d'/4c'/4) | b2 a/b/ | c'2 d' | (3(c'/d'/c'/) b2 | (3(a/b/a/)"^III"[Fcg][Bf] | %49
 z (3^G/B/e/E | z/ ^g/a/b/d'/c'/ | (3(b/c'/b/)"^V" a2 | (3(a/b/a/)"^III"[Fcg][Bf] | z (3^G/B/e/E | %54
 ^g/a/"^VII"b/c'/e'/d'/ | (3(b/c'/b/)"^V" a2 | (3(g/a/g/) f/c/ G/F/ | z (3^G/B/e/E | %58
 z/ [FA]/ z/ [FAB]/ z/ [FA]/ | z (3^G/B/e/E | z/ [FA]/ z/ [FAB]/ z/ [FA]/ | z (3^G/B/e/E | %62
 z [AB] z | z (3^G/B/e/E | z/ [FA]/ z/ [FAB]/ z/ [FA]/ | z (3^G/B/e/E | z [AB] z | z [AB] z | %68
 z [AB] z ||[M:4/4] z4 e2 e'2 |"^V" !fermata!e'8!fine! |][M:3/8][Q:1/4=60]"^Lento"!ff! e'2 d' | %72
 Pe'2 d' | Pe' z/4!>(! d'/4e'/4d'/4 c'/4a/4f/4d/4!>)! |!p! c3- | c3 |"^VIII" ga/b/c'- | %77
 c' z/4 _b/4c'/4b/4"^V" a/4b/4c'/4b/4 | a3- | a3 |"^I" f"^III"g/!-(!a/!-)![cfc'-] | %81
 c' z/4 b/4c'/4b/4 a/g/ | c' z/4 a/4b/4a/4 g/e/ | c3 |"^VIII" g"^V" c'2 | %85
 z z/ b/4c'/4 b/4a/4g/4a/4 | b2 (3a/b/a/ |"^III" g3 | fg/a/b- | b z/ a/4b/4 a/g/ | %90
 a3/2 g/4a/4 g/e/ | c3 |"_rit.""^I" f"^III"g/a/c'- | c'"^VII" !fermata!b2- | %94
[Q:1/4=43]"^Adagio""_cadenza lento\nad lib." b z/!f! c'/4b/4 a/4b/4c'/4d'/4 | %95
 Pc'/b/4a/4 b/4c'/4d'/4c'/4 b/4c'/4a/4b/4 Pg/f/4e/4"_rit." f/4g/4f/4c/4 A/4G/4F/4C/4!D.S.! |] %96
V:2
 x6 ||[M:3/8] z B,2 | CDB, | z B,2 | CDB, | z B,2 | (3(A,/B,/C/) (3(D/E/F/) (3G/F/E/ | z B,2 | %8
 CDB, | z B,2 | (3(A,/B,/C/) (3(D/E/F/) (3G/F/E/ | (3(A,/B,/C/) (3(D/E/F/) (3G/F/E/ | %12
 (3(A,/B,/C/) (3(D/E/F/) (3G/F/E/ | z B,2 | (A,/C/)DF | z B,2 | (A,/C/)DF | z B,2 | %18
 A,/B,/C/D/E/F/ | D/E/C/D/B,/C/ | A,/B,/G,/A,/F,/G,/ | z B,2 | C2 D/B,/ | z B,2 | C2 D/B,/ | %25
 E,(3E/^G/B/B | E,[FGB]B, | E,(3E/^G/B/B | E,[FGB]B, | E,(3E/^G/B/B | E, A,2 | z B,2 | (A,/C/)DF | %33
 z B,2 | (3(A,/B,/C/) (3(D/E/F/) (3G/F/E/ | z B,2 | A,/B,/C/D/E/F/ | D/E/C/D/B,/C/ | %38
 A,/B,/G,/A,/F,/G,/ | z B,2 | (3(A,/B,/C/) (3(D/E/F/) (3G/F/E/ | (3(A,/B,/C/) (3(D/E/F/) (3G/F/E/ | %42
 (3(A,/B,/C/) (3(D/E/F/) (3G/F/E/ | E,(3E/^G/B/B | E,[FGB]B, | E,(3E/^G/B/B | E,"^VII"[FAd]B, | %47
 E,(3E/^G/B/B | E, A,2 | z B,2 | E,B,F | E,(3A,/A/c/e | E, A,2 | z B,2 | E,B,F | E,(3A,/A/c/e | %56
 E,A,C | z B,2 | CDB, | z B,2 | CDB, | z B,2 | (3(A,/B,/C/) (3(D/E/F/) (3G/F/E/ | z B,2 | CDB, | %65
 z B,2 | (3(A,/B,/C/) (3(D/E/F/) (3G/F/E/ | (3(A,/B,/C/) (3(D/E/F/) (3G/F/E/ | %68
 (3(A,/B,/C/) (3(D/E/F/) (3G/F/E/ ||[M:4/4] E,2 B,2 ^G4 | !arpeggio!!fermata![EB^g]8 |][M:3/8] x3 | %72
 x3 | x3 | z/ [EG]/ z/ [EG]/ z/ [EG]/ | z/ [EG]/ z/ [EG]/ z/ [EG]/ | z/ [ce]/ z z/ [eg]/ | %77
 z/ [eg]/ z/4 e3/4 x | z/ [cf]/ z/ [cf]/ z/ f/ | z/ [cf]/ z/ [cf]/ z/ f/ | z/ [Ac]/ z x | %81
 z/ f/ z/4 f3/4 x | z/ [ce]/ z/4 x7/4 | z/ [EG]/ z/ [EG]/ z/ [EG]/ | z/ [ce]/ z/ [ce]/ z/ [ce]/ | %85
 z/ [eg]/ z/ e/4 x5/4 | z/ [Bf]/ z/ [Bf]/ z | z/ [Bf]/ z/ [Bf]/ z/ [Bf]/ | z/ B/ z z/ [Bf]/ | %89
 z/ [Bf]/ z/ [Bf]/4 x5/4 | z/ [ce]/ z/ [ce]/4 x5/4 | z/ [EG]/ z/ [EG]/ z/ [EG]/ | %92
 z/ [Ac]/ z z/ [eg]/ | z/ [Bf]/ z x | x3 | x6 |] %96
V:3
 x6 ||[M:3/8] E,3 | x3 | E,3 | x3 | E,3 | x3 | E,3 | x3 | E,3 | x3 | x3 | x3 | E,3 | x3 | E,3 | %16
 x3 | E,3 | x3 | x3 | x3 | E,3 | x3 | E,3 | x3 | x3 | x3 | x3 | x3 | x3 | x3 | E,3 | x3 | E,3 | %34
 x3 | E,3 | x3 | x3 | x3 | E,3 | x3 | x3 | x3 | x3 | x3 | x3 | x3 | x3 | x3 | E,3 | x3 | x3 | x3 | %53
 E,3 | x3 | x3 | x3 | E,3 | x3 | E,3 | x3 | E,3 | x3 | E,3 | x3 | E,3 | x3 | x3 | x3 ||[M:4/4] x8 | %70
 x8 |][M:3/8] x3 | x3 | x3 | CE,G, | CE,G, | CGc | CGc | FAc | FAc | F,CA | G,DG | CGE | CE,G, | %84
 CEG | CGc | G,DG | G,DG | G,DG | G,DG | CE,G, | CG,E, | F,CA | D2 !arpeggio![B,FAd] | x3 | x6 |] %96

